images/companyLogos/creode.svg

<svg width="116" height="28" viewBox="0 0 116 28" fill="none" xmlns="http://www.w3.org/2000/svg">
<path d="M0 17.3429C0 11.8304 4.86846 7.21533 10.6124 7.21533C13.5484 7.21533 15.9933 8.32638 17.819 10.1105C18.0219 10.3134 18.0325 10.6446 17.8297 10.8583C17.819 10.869 17.8083 10.8796 17.7977 10.8903L15.0752 13.2192C14.8082 13.4436 14.4132 13.4436 14.1463 13.2086C13.1534 12.3432 11.8829 11.8625 10.5697 11.8411C7.71908 11.8411 5.31688 14.3516 5.31688 17.3216C5.31688 20.3662 7.71908 22.9088 10.6017 22.9088C11.9043 22.9088 13.2495 22.3426 14.2531 21.4666C14.52 21.2316 14.915 21.2209 15.1819 21.4559L17.9044 23.7528C18.1286 23.9451 18.15 24.2763 17.9685 24.4899C17.9578 24.5006 17.9471 24.5113 17.9365 24.522C16.0681 26.3808 13.5805 27.5239 10.5697 27.5239C4.83644 27.5132 0 22.8554 0 17.3429Z" fill="white"/>
<path d="M32.2322 7.76024V11.3177C32.2322 11.5955 32.008 11.8305 31.7304 11.8412C27.9723 12.0228 25.5915 14.309 25.5915 17.7917V26.5305C25.5915 26.8189 25.3566 27.0539 25.0683 27.0539H20.6483C20.36 27.0539 20.1251 26.8189 20.1251 26.5305V8.18756C20.1251 7.89912 20.36 7.66409 20.6483 7.66409H25.0683C25.3566 7.66409 25.5915 7.89912 25.5915 8.18756V11.2643C26.7872 8.91401 28.9545 7.41838 31.6557 7.22608C31.944 7.20472 32.2002 7.41838 32.2215 7.70682C32.2322 7.72819 32.2322 7.74955 32.2322 7.76024Z" fill="white"/>
<path d="M94.0275 1.36106V26.5305C94.0275 26.8189 93.7926 27.054 93.5043 27.054H89.0843C88.796 27.054 88.5611 26.8189 88.5611 26.5305V24.2763C87.0237 26.3061 84.771 27.5026 82.0378 27.5026C76.8597 27.5026 73.1123 23.3042 73.1123 17.3323C73.1123 11.4032 76.8597 7.20472 82.0378 7.20472C84.771 7.20472 87.0237 8.40123 88.5611 10.431V1.35038C88.5611 1.06193 88.796 0.826904 89.0843 0.826904H93.5043C93.7926 0.837587 94.0275 1.07262 94.0275 1.36106ZM88.5505 17.343C88.5505 14.1167 86.4899 11.8305 83.6073 11.8305C80.5751 11.8305 78.4292 14.1167 78.4292 17.343C78.4292 20.6014 80.5645 22.8982 83.6073 22.8982C86.4899 22.8982 88.5505 20.612 88.5505 17.343Z" fill="white"/>
<path d="M111.548 21.4132L114.206 24.1267C114.409 24.3297 114.409 24.6715 114.195 24.8745C114.185 24.8852 114.185 24.8852 114.174 24.8959C112.37 26.477 109.306 27.5132 106.668 27.5132C100.892 27.5132 96.3977 23.272 96.3977 17.3109C96.3977 11.4565 100.711 7.21533 106.37 7.21533C112.295 7.21533 115.829 11.6061 116 18.6035C116.01 18.892 115.775 19.1377 115.487 19.1484H115.477H102.024C102.419 21.1675 104.352 22.6738 106.636 22.6738C107.971 22.6738 109.551 22.1396 110.629 21.3384C110.907 21.1247 111.302 21.1568 111.548 21.4132ZM102.003 15.2063H110.907C110.48 13.294 108.793 11.8304 106.583 11.8304C104.522 11.8304 102.377 13.1017 102.003 15.2063Z" fill="white"/>
<path d="M60.7811 7.21531C60.7811 7.21531 55.4749 6.99097 52.8591 11.4138L46.7949 20.7508C46.7949 20.7508 46.3678 21.4666 45.834 21.8725C45.3216 22.2678 44.4034 22.6631 42.9941 22.6631C40.7093 22.6631 38.7662 21.1674 38.3819 19.1377H44.8945C45.0867 19.1377 45.2682 19.0415 45.3749 18.8706L50.1153 11.5633C50.2327 11.3817 50.2327 11.1574 50.1366 10.9651C47.8198 6.93755 42.7272 7.19394 42.7272 7.19394C37.0687 7.19394 32.7554 11.4351 32.7554 17.2895C32.7554 23.2507 37.2502 27.4918 43.0261 27.4918C43.0261 27.4918 43.0795 27.4918 43.1756 27.4918C43.3037 27.4918 43.4318 27.4812 43.5599 27.4705C44.8731 27.353 48.311 26.8081 50.3288 24.0946L57.1511 13.6359L57.2472 13.497C57.6635 12.856 58.8059 11.8197 60.7704 11.8197C63.653 11.8197 66.0979 14.3303 66.0979 17.3322C66.0979 20.3342 63.6637 22.8874 60.7704 22.8874C60.0124 22.8661 59.2757 22.6631 58.6031 22.2999C57.7169 21.8191 56.7881 21.0072 56.0194 19.8962C55.966 19.8107 55.8592 19.7893 55.7738 19.8427C55.7525 19.8534 55.7311 19.8748 55.7204 19.8962L53.3502 23.5498C53.2435 23.71 53.2542 23.9237 53.3716 24.0839C56.0941 27.6841 60.7277 27.5025 60.7597 27.5025C66.493 27.5025 71.2974 22.8554 71.2974 17.3322C71.2974 11.809 66.525 7.21531 60.7811 7.21531ZM42.9727 11.8304C45.1828 11.8304 46.8803 13.2726 47.2967 15.2063H38.4032C38.7342 13.1658 40.7947 11.8304 42.9727 11.8304Z" fill="white"/>
</svg>

<svg fill="none" xmlns="http://www.w3.org/2000/svg" viewBox="0 0 116 28">
  <path
    d="M0 17.343C0 11.83 4.868 7.215 10.612 7.215c2.936 0 5.381 1.111 7.207 2.896a.536.536 0 0 1 .01.747l-.031.032-2.723 2.33a.712.712 0 0 1-.929-.011 5.583 5.583 0 0 0-3.576-1.368c-2.85 0-5.253 2.51-5.253 5.48 0 3.045 2.402 5.588 5.285 5.588 1.302 0 2.647-.566 3.651-1.442a.7.7 0 0 1 .929-.011l2.722 2.297a.525.525 0 0 1 .064.737l-.032.032c-1.868 1.859-4.355 3.002-7.366 3.002C4.836 27.514 0 22.855 0 17.343ZM32.232 7.76v3.558a.527.527 0 0 1-.502.523c-3.758.182-6.139 2.468-6.139 5.95v8.74a.524.524 0 0 1-.523.523h-4.42a.524.524 0 0 1-.523-.523V8.188c0-.289.235-.524.523-.524h4.42c.289 0 .523.235.523.524v3.076c1.196-2.35 3.363-3.846 6.065-4.038a.526.526 0 0 1 .566.48c.01.022.01.044.01.054ZM94.028 1.361v25.17a.524.524 0 0 1-.524.523h-4.42a.524.524 0 0 1-.523-.523v-2.255c-1.537 2.03-3.79 3.227-6.523 3.227-5.178 0-8.926-4.199-8.926-10.17 0-5.93 3.748-10.128 8.926-10.128 2.733 0 4.986 1.196 6.523 3.226v-9.08c0-.29.235-.524.523-.524h4.42a.54.54 0 0 1 .523.534ZM88.55 17.343c0-3.226-2.06-5.512-4.943-5.512-3.032 0-5.178 2.286-5.178 5.512 0 3.258 2.135 5.555 5.178 5.555 2.883 0 4.944-2.286 4.944-5.555ZM111.548 21.413l2.658 2.714a.525.525 0 0 1-.011.748l-.021.02c-1.804 1.582-4.868 2.618-7.506 2.618-5.776 0-10.27-4.241-10.27-10.202 0-5.854 4.313-10.096 9.972-10.096 5.925 0 9.459 4.391 9.63 11.389a.535.535 0 0 1-.513.544h-13.463c.395 2.02 2.328 3.526 4.612 3.526 1.335 0 2.915-.534 3.993-1.336a.69.69 0 0 1 .919.075Zm-9.545-6.207h8.904c-.427-1.912-2.114-3.376-4.324-3.376-2.061 0-4.206 1.272-4.58 3.376ZM60.781 7.215s-5.306-.224-7.922 4.199l-6.064 9.337s-.427.716-.961 1.121c-.512.396-1.43.791-2.84.791-2.285 0-4.228-1.496-4.612-3.525h6.513a.563.563 0 0 0 .48-.267l4.74-7.308a.599.599 0 0 0 .022-.598c-2.317-4.027-7.41-3.771-7.41-3.771-5.658 0-9.972 4.241-9.972 10.096 0 5.96 4.495 10.202 10.271 10.202h.15c.128 0 .256-.01.384-.021 1.313-.118 4.751-.663 6.769-3.376l6.822-10.46.096-.138c.416-.641 1.559-1.677 3.523-1.677 2.883 0 5.328 2.51 5.328 5.512s-2.434 5.555-5.328 5.555a4.836 4.836 0 0 1-2.167-.587c-.886-.48-1.815-1.293-2.584-2.404a.174.174 0 0 0-.245-.053.13.13 0 0 0-.054.053l-2.37 3.654a.467.467 0 0 0 .022.534c2.722 3.6 7.356 3.419 7.388 3.419 5.733 0 10.537-4.648 10.537-10.17 0-5.524-4.772-10.118-10.516-10.118ZM42.973 11.83c2.21 0 3.907 1.443 4.324 3.376h-8.894c.331-2.04 2.392-3.376 4.57-3.376Z"
    fill="#fff"
  />
</svg>
